%
(1001)
(T1  D=0.25 CR=0 - ZMIN=-0.75 - flat end mill)
G90 G94
G17
G20
G28 G91 Z0
G90

(2D Contour5)
M9
T1 M6
S4580 M3
G54
M8
G0 X0.3341 Y-0.3341
Z0.2
G1 Z-0.2 F30
X0.3212 F18
G2 X0.2328 Y-0.2975 J0.125
G1 X-0.2975 Y0.2328
G2 X-0.3341 Y0.3212 I0.0884 J0.0884
G1 Y1.2587
G2 X-0.2091 Y1.3837 I0.125
G1 X0.0409
G2 X0.4159 Y1.0087 J-0.375
G1 Y0.7404
X0.7404 Y0.4159
X1.0087
G2 X1.3837 Y0.0409 J-0.375
G1 Y-0.2091
G2 X1.2587 Y-0.3341 I-0.125
G1 X0.3341
G3 X0.3091 Y-0.3591 J-0.025
G1 Y-0.3841
G19 G2 Y-0.4091 Z-0.175 K0.025
G0 Z0.2
X1.4591 Y-0.8341
G1 Z-0.2 F30
G17 G2 X1.5841 Y-0.9591 J-0.125 F18
G1 Y-1.2091
G2 X1.2091 Y-1.5841 I-0.375
G1 X-0.2328
G2 X-0.604 Y-1.4303 J0.525
G1 X-1.4303 Y-0.604
G2 X-1.5841 Y-0.2328 I0.3712 J0.3712
G1 Y1.2091
G2 X-1.2091 Y1.5841 I0.375
G1 X-0.9591
G2 X-0.8341 Y1.4591 J-0.125
G1 Y0.0841
X-0.3591
G2 X-0.2707 Y0.0475 J-0.125
G1 X0.0475 Y-0.2707
G2 X0.0841 Y-0.3591 I-0.0884 J-0.0884
G1 Y-0.8341
X1.4591
G3 X1.4841 Y-0.8091 J0.025
G1 Y-0.7841
G19 G3 Y-0.7591 Z-0.175 K0.025
G0 Z0.2
X1.4591 Y-0.8341
G1 Z0 F30
Z-0.4
G17 G2 X1.5841 Y-0.9591 J-0.125 F18
G1 Y-1.2091
G2 X1.2091 Y-1.5841 I-0.375
G1 X-0.2328
G2 X-0.604 Y-1.4303 J0.525
G1 X-1.4303 Y-0.604
G2 X-1.5841 Y-0.2328 I0.3712 J0.3712
G1 Y1.2091
G2 X-1.2091 Y1.5841 I0.375
G1 X-0.9591
G2 X-0.8341 Y1.4591 J-0.125
G1 Y0.0841
X-0.3591
G2 X-0.2707 Y0.0475 J-0.125
G1 X0.0475 Y-0.2707
G2 X0.0841 Y-0.3591 I-0.0884 J-0.0884
G1 Y-0.8341
X1.4591
G3 X1.4841 Y-0.8091 J0.025
G1 Y-0.7841
G19 G3 Y-0.7591 Z-0.375 K0.025
G0 Z0.2
X0.3341 Y-0.3341
G1 Z0 F30
Z-0.4
X0.3212 F18
G17 G2 X0.2328 Y-0.2975 J0.125
G1 X-0.2975 Y0.2328
G2 X-0.3341 Y0.3212 I0.0884 J0.0884
G1 Y1.2587
G2 X-0.2091 Y1.3837 I0.125
G1 X0.0409
G2 X0.4159 Y1.0087 J-0.375
G1 Y0.7404
X0.7404 Y0.4159
X1.0087
G2 X1.3837 Y0.0409 J-0.375
G1 Y-0.2091
G2 X1.2587 Y-0.3341 I-0.125
G1 X0.3341
G3 X0.3091 Y-0.3591 J-0.025
G1 Y-0.3841
G19 G2 Y-0.4091 Z-0.375 K0.025
G0 Z0.2
X0.3341 Y-0.3341
G1 Z-0.2 F30
Z-0.6
X0.3212 F18
G17 G2 X0.2328 Y-0.2975 J0.125
G1 X-0.2975 Y0.2328
G2 X-0.3341 Y0.3212 I0.0884 J0.0884
G1 Y1.2587
G2 X-0.2091 Y1.3837 I0.125
G1 X0.0409
G2 X0.4159 Y1.0087 J-0.375
G1 Y0.7404
X0.7404 Y0.4159
X1.0087
G2 X1.3837 Y0.0409 J-0.375
G1 Y-0.2091
G2 X1.2587 Y-0.3341 I-0.125
G1 X0.3341
G3 X0.3091 Y-0.3591 J-0.025
G1 Y-0.3841
G19 G2 Y-0.4091 Z-0.575 K0.025
G0 Z0.2
X1.4591 Y-0.8341
G1 Z-0.2 F30
Z-0.6
G17 G2 X1.5841 Y-0.9591 J-0.125 F18
G1 Y-1.2091
G2 X1.2091 Y-1.5841 I-0.375
G1 X-0.2328
G2 X-0.604 Y-1.4303 J0.525
G1 X-1.4303 Y-0.604
G2 X-1.5841 Y-0.2328 I0.3712 J0.3712
G1 Y1.2091
G2 X-1.2091 Y1.5841 I0.375
G1 X-0.9591
G2 X-0.8341 Y1.4591 J-0.125
G1 Y0.0841
X-0.3591
G2 X-0.2707 Y0.0475 J-0.125
G1 X0.0475 Y-0.2707
G2 X0.0841 Y-0.3591 I-0.0884 J-0.0884
G1 Y-0.8341
X1.4591
G3 X1.4841 Y-0.8091 J0.025
G1 Y-0.7841
G19 G3 Y-0.7591 Z-0.575 K0.025
G0 Z0.2
X1.4591 Y-0.8341
G1 Z-0.4 F30
Z-0.75
G17 G2 X1.5841 Y-0.9591 J-0.125 F18
G1 Y-1.2091
G2 X1.2091 Y-1.5841 I-0.375
G1 X0.8023
Z-0.65
X0.0523
Z-0.75 F30
X-0.2328 F18
G2 X-0.604 Y-1.4303 J0.525
G1 X-1.4303 Y-0.604
G2 X-1.5841 Y-0.2328 I0.3712 J0.3712
G1 Y-0.0622
Z-0.65
Y0.6878
Z-0.75 F30
Y1.2091 F18
G2 X-1.2091 Y1.5841 I0.375
G1 X-0.9591
G2 X-0.8341 Y1.4591 J-0.125
G1 Y0.0841
X-0.3591
G2 X-0.2707 Y0.0475 J-0.125
G1 X0.0475 Y-0.2707
G2 X0.0841 Y-0.3591 I-0.0884 J-0.0884
G1 Y-0.8341
X1.4591
G3 X1.4841 Y-0.8091 J0.025
G1 Y-0.7841
G19 G3 Y-0.7591 Z-0.725 K0.025
G0 Z0.2
X0.3341 Y-0.3341
G1 Z-0.4 F30
Z-0.75
X0.3212 F18
G17 G2 X0.2328 Y-0.2975 J0.125
G1 X-0.2975 Y0.2328
G2 X-0.3341 Y0.3212 I0.0884 J0.0884
G1 Y0.3592
Z-0.65
Y1.1092
Z-0.75 F30
Y1.2587 F18
G2 X-0.2091 Y1.3837 I0.125
G1 X0.0409
G2 X0.4159 Y1.0087 J-0.375
G1 Y0.7404
X0.7404 Y0.4159
X1.0087
G2 X1.3837 Y0.0409 J-0.375
G1 Y-0.2091
G2 X1.2587 Y-0.3341 I-0.125
G1 X1.1919
Z-0.65
X0.4419
Z-0.75 F30
X0.3341 F18
G3 X0.3091 Y-0.3591 J-0.025
G1 Y-0.3841
G19 G2 Y-0.4091 Z-0.725 K0.025
G0 Z0.2
G17
M9
G28 G91 Z0
G28 X0 Y0
M30
%
